website/public/Images/logos/cncf_logo.svg

<svg width="356" height="60" viewBox="0 0 356 60" fill="none" xmlns="http://www.w3.org/2000/svg">
<path d="M84.5426 26.2082C87.4548 26.2082 89.7493 24.9914 91.6026 22.5577L95.3091 26.6763C92.3086 30.2332 88.8668 32.0116 84.8073 32.0116C80.7478 32.0116 77.4826 30.7012 74.8351 27.9867C72.1876 25.2722 70.9521 21.9025 70.9521 17.7839C70.9521 13.6654 72.2758 10.202 74.9233 7.48755C77.5708 4.77305 80.8361 3.36899 84.7191 3.36899C89.0433 3.36899 92.6616 5.14746 95.4856 8.61079L91.8673 13.0101C90.0141 10.5765 87.7196 9.35961 84.9838 9.35961C82.7776 9.35961 80.9243 10.1084 79.3358 11.6061C77.7473 13.1038 76.9531 15.163 76.9531 17.7839C76.9531 20.4048 77.6591 22.4641 79.1593 24.0554C80.6596 25.3658 82.4246 26.2082 84.5426 26.2082ZM99.9863 31.6372V3.83701H105.811V26.1146H117.019V31.6372H99.9863ZM142.611 27.7995C139.964 30.514 136.698 31.918 132.815 31.918C128.932 31.918 125.667 30.514 123.02 27.7995C120.372 25.085 119.048 21.6217 119.048 17.5967C119.048 13.5718 120.372 10.1084 123.02 7.39394C125.667 4.67944 128.932 3.27539 132.815 3.27539C136.698 3.27539 139.964 4.67944 142.611 7.39394C145.259 10.1084 146.582 13.5718 146.582 17.5967C146.582 21.6217 145.259 25.085 142.611 27.7995ZM140.581 17.5967C140.581 15.163 139.787 13.0101 138.375 11.2317C136.875 9.45322 135.022 8.61079 132.815 8.61079C130.609 8.61079 128.756 9.45322 127.256 11.2317C125.755 13.0101 124.961 15.0694 124.961 17.5967C124.961 20.124 125.755 22.1833 127.256 23.9618C128.756 25.7402 130.609 26.5826 132.815 26.5826C135.022 26.5826 136.875 25.7402 138.375 23.9618C139.875 22.1833 140.581 20.124 140.581 17.5967ZM158.496 24.5234C159.467 25.8338 160.791 26.489 162.467 26.489C164.144 26.489 165.468 25.8338 166.35 24.5234C167.321 23.2129 167.762 21.4345 167.762 19.2816V3.83701H173.587V19.3752C173.587 23.4001 172.528 26.489 170.41 28.6419C168.292 30.7948 165.644 31.918 162.379 31.918C159.114 31.918 156.378 30.7948 154.26 28.6419C152.142 26.489 151.083 23.4001 151.083 19.3752V3.83701H156.908V19.188C156.996 21.4345 157.525 23.2129 158.496 24.5234ZM199.709 7.48755C202.18 9.92123 203.504 13.291 203.504 17.5967C203.504 21.9025 202.268 25.3658 199.885 27.8931C197.414 30.4204 193.708 31.6372 188.766 31.6372H179.676V3.83701H188.942C193.62 3.83701 197.238 5.05386 199.709 7.48755ZM195.473 24.0554C196.885 22.6513 197.591 20.4984 197.591 17.7839C197.591 15.0694 196.885 12.9165 195.473 11.5125C194.061 10.0148 191.855 9.26601 188.854 9.26601H185.589V26.2082H189.295C191.943 26.2082 193.973 25.4594 195.473 24.0554ZM236.774 3.83701H242.686V31.6372H236.774L224.331 14.227V31.6372H218.418V3.83701H223.978L236.774 21.8089V3.83701ZM267.749 31.6372L265.278 25.6466H254.247L251.776 31.6372H245.51L256.806 3.83701H262.454L273.75 31.6372H267.749ZM259.895 12.1677L256.63 20.2176H263.16L259.895 12.1677ZM286.282 9.26601V31.6372H280.369V9.26601H272.956V3.83701H293.695V9.26601H286.282ZM297.931 3.83701H303.755V31.6372H297.931V3.83701ZM319.905 21.5281L326.612 3.83701H332.966L322.376 31.6372H317.434L306.932 3.83701H313.286L319.905 21.5281ZM354.94 3.83701V9.35961H341.879V15.163H353.617V20.4048H341.879V26.2082H355.382V31.6372H336.055V3.83701H354.94ZM77.8356 55.3189C79.4241 55.3189 80.7478 54.6637 81.8068 53.2596L83.9248 55.5997C82.2481 57.5654 80.3066 58.595 78.0121 58.595C75.7176 58.595 73.8643 57.8462 72.4523 56.3485C70.9521 54.8509 70.2461 52.8852 70.2461 50.6387C70.2461 48.2986 70.9521 46.4266 72.4523 44.8353C73.9526 43.2441 75.8058 42.4952 77.9238 42.4952C80.3066 42.4952 82.3363 43.4313 84.0131 45.3969L81.9833 47.8306C80.9243 46.4266 79.6888 45.7714 78.1003 45.7714C76.8648 45.7714 75.8058 46.2394 74.9233 47.0818C74.0408 47.9242 73.5996 49.0475 73.5996 50.5451C73.5996 52.0428 74.0408 53.166 74.8351 54.0085C75.6293 54.9445 76.6883 55.3189 77.8356 55.3189ZM98.4861 56.2549C96.9858 57.7526 95.1326 58.595 93.0146 58.595C90.8966 58.595 89.0433 57.8462 87.5431 56.2549C86.0428 54.7573 85.3368 52.7916 85.3368 50.5451C85.3368 48.2986 86.0428 46.333 87.5431 44.8353C89.0433 43.3377 90.8966 42.4952 93.0146 42.4952C95.1326 42.4952 96.9858 43.2441 98.4861 44.8353C99.9863 46.333 100.692 48.2986 100.692 50.5451C100.692 52.7916 99.9863 54.7573 98.4861 56.2549ZM97.4271 50.5451C97.4271 49.1411 96.9858 47.9242 96.1916 46.9882C95.3091 46.0522 94.3383 45.4905 93.1028 45.4905C91.8673 45.4905 90.8083 45.9586 90.0141 46.9882C89.1316 47.9242 88.7786 49.1411 88.7786 50.5451C88.7786 51.9492 89.2198 53.0724 90.0141 54.1021C90.8966 55.0381 91.8673 55.5997 93.1028 55.5997C94.3383 55.5997 95.3973 55.1317 96.1916 54.1021C96.9858 53.166 97.4271 51.9492 97.4271 50.5451ZM116.666 48.5795L112.694 57.191H110.753L106.782 48.5795V58.4078H103.516V42.8696H107.929L111.724 51.3876L115.518 42.8696H119.931V58.4078H116.666V48.5795ZM133.698 44.2737C134.757 45.2097 135.286 46.6138 135.286 48.5795C135.286 50.5451 134.757 51.9492 133.698 52.7916C132.639 53.7276 131.05 54.1021 128.844 54.1021H126.903V58.4078H123.637V42.8696H128.844C131.05 42.8696 132.639 43.3377 133.698 44.2737ZM131.315 50.3579C131.668 49.8899 131.933 49.2347 131.933 48.2986C131.933 47.3626 131.668 46.801 131.139 46.4266C130.609 46.0522 129.815 45.865 128.756 45.865H126.903V51.1067H129.109C130.168 51.1067 130.874 50.8259 131.315 50.3579ZM141.729 54.3829C142.258 55.1317 143.052 55.5061 143.935 55.5061C144.817 55.5061 145.612 55.1317 146.141 54.3829C146.671 53.634 146.935 52.698 146.935 51.3876V42.776H150.201V51.4812C150.201 53.7276 149.583 55.5061 148.436 56.723C147.288 57.9398 145.788 58.5014 143.935 58.5014C142.082 58.5014 140.581 57.8462 139.434 56.6293C138.287 55.4125 137.669 53.634 137.669 51.3876V42.6824H140.934V51.4812C140.934 52.698 141.199 53.7276 141.729 54.3829ZM159.82 45.865V58.4078H156.555V45.865H152.407V42.8696H163.968V45.865H159.82ZM166.439 42.8696H169.704V58.5014H166.439V42.8696ZM183.559 42.8696H186.824V58.4078H183.559L176.587 48.6731V58.4078H173.322V42.8696H176.323L183.559 52.8852V42.8696ZM200.062 50.5451H203.327V56.0677C201.827 57.7526 199.885 58.6886 197.238 58.6886C195.12 58.6886 193.267 57.9398 191.766 56.4421C190.266 54.9445 189.56 52.9788 189.56 50.7323C189.56 48.3923 190.266 46.5202 191.766 44.9289C193.267 43.3377 195.032 42.5888 197.15 42.5888C199.268 42.5888 201.121 43.3377 202.621 44.8353L200.944 47.4562C200.327 46.801 199.709 46.4266 199.091 46.2394C198.562 46.0522 197.944 45.865 197.326 45.865C196.091 45.865 195.032 46.333 194.149 47.1754C193.267 48.1114 192.825 49.2347 192.825 50.7323C192.825 52.23 193.267 53.3532 194.061 54.2893C194.855 55.1317 195.826 55.5997 196.973 55.5997C198.12 55.5997 199.091 55.4125 199.797 54.9445L200.062 50.5451ZM221.859 42.8696V45.865H215.064V49.2347H221.595V52.3236H215.064V58.4078H211.799V42.8696H221.859ZM237.038 56.2549C235.538 57.7526 233.685 58.595 231.567 58.595C229.361 58.595 227.596 57.8462 226.096 56.2549C224.595 54.7573 223.889 52.7916 223.889 50.5451C223.889 48.2986 224.595 46.333 226.096 44.8353C227.596 43.3377 229.449 42.4952 231.567 42.4952C233.773 42.4952 235.538 43.2441 237.038 44.8353C238.539 46.333 239.245 48.2986 239.245 50.5451C239.245 52.7916 238.539 54.7573 237.038 56.2549ZM235.891 50.5451C235.891 49.1411 235.45 47.9242 234.656 46.9882C233.773 46.0522 232.802 45.4905 231.567 45.4905C230.331 45.4905 229.272 45.9586 228.478 46.9882C227.596 47.9242 227.243 49.1411 227.243 50.5451C227.243 51.9492 227.684 53.0724 228.478 54.1021C229.361 55.0381 230.331 55.5997 231.567 55.5997C232.802 55.5997 233.861 55.1317 234.656 54.1021C235.538 53.166 235.891 51.9492 235.891 50.5451ZM245.952 54.3829C246.481 55.1317 247.275 55.5061 248.158 55.5061C249.04 55.5061 249.835 55.1317 250.364 54.3829C250.894 53.634 251.158 52.698 251.158 51.3876V42.776H254.424V51.4812C254.424 53.7276 253.806 55.5061 252.659 56.723C251.512 57.9398 250.011 58.5014 248.158 58.5014C246.305 58.5014 244.805 57.8462 243.657 56.6293C242.51 55.4125 241.892 53.634 241.892 51.3876V42.6824H245.158V51.4812C245.069 52.698 245.422 53.7276 245.952 54.3829ZM268.102 42.8696H271.368V58.4078H268.102L261.131 48.6731V58.4078H257.865V42.8696H260.866L268.102 52.8852V42.8696ZM286.194 44.9289C287.606 46.333 288.312 48.205 288.312 50.6387C288.312 53.0724 287.606 54.9445 286.282 56.3485C284.958 57.7526 282.84 58.5014 280.016 58.5014H274.986V42.8696H280.193C282.84 42.8696 284.87 43.5249 286.194 44.9289ZM283.811 54.1957C284.605 53.3532 285.046 52.23 285.046 50.7323C285.046 49.2347 284.605 48.0178 283.811 47.1754C283.017 46.333 281.781 45.9586 280.104 45.9586H278.251V55.4125H280.369C281.869 55.3189 283.017 54.9445 283.811 54.1957ZM301.196 58.4078L299.872 55.0381H293.695L292.371 58.4078H288.841L295.195 42.776H298.372L304.726 58.4078H301.196ZM296.784 47.4562L294.93 51.9492H298.637L296.784 47.4562ZM311.61 45.865V58.4078H308.256V45.865H304.108V42.8696H315.757V45.865H311.61ZM318.14 42.8696H321.405V58.5014H318.14V42.8696ZM337.379 56.2549C335.878 57.7526 334.025 58.595 331.907 58.595C329.701 58.595 327.936 57.8462 326.436 56.2549C324.935 54.7573 324.229 52.7916 324.229 50.5451C324.229 48.2986 324.935 46.333 326.436 44.8353C327.936 43.3377 329.789 42.4952 331.907 42.4952C334.113 42.4952 335.878 43.2441 337.379 44.8353C338.879 46.333 339.585 48.2986 339.585 50.5451C339.585 52.7916 338.879 54.7573 337.379 56.2549ZM336.32 50.5451C336.32 49.1411 335.878 47.9242 335.084 46.9882C334.202 46.0522 333.231 45.4905 331.995 45.4905C330.76 45.4905 329.701 45.9586 328.907 46.9882C328.024 47.9242 327.671 49.1411 327.671 50.5451C327.671 51.9492 328.112 53.0724 328.907 54.1021C329.789 55.0381 330.76 55.5997 331.995 55.5997C333.231 55.5997 334.29 55.1317 335.084 54.1021C335.878 53.166 336.32 51.9492 336.32 50.5451ZM352.646 42.8696H355.999V58.4078H352.646L345.674 48.6731V58.4078H342.409V42.8696H345.498L352.646 52.8852V42.8696Z" fill="#3B4473"/>
<path d="M8.03075 39.9688H0V60H18.7972V51.3885H8.03075V39.9688ZM48.4492 40.0624V51.3885H37.6827V51.2949V60H56.48V39.9688H48.361L48.4492 40.0624ZM0 20.0312H8.119L8.03075 19.9376V8.61154H18.7972V0H0V20.0312ZM37.6827 0V8.61154H48.4492V20.0312H56.48V0H37.6827Z" fill="#446CA9"/>
<path d="M36.6237 20.0312L25.8572 8.61154H37.6827V0H18.7972V8.61154L29.5637 20.0312H36.6237ZM26.9162 39.9688H19.8562L28.7695 49.4228L30.5345 51.3885H18.7972V60H37.6827V51.2949L32.2995 45.6786L26.9162 39.9688ZM48.4492 20.0312V32.4805L46.596 30.5148L37.6827 21.0608V28.6427L42.9777 34.259L48.361 39.9688H56.48V20.0312H48.4492ZM18.7972 31.3573L8.119 20.0312H0V39.9688H8.03075V27.5195L18.7972 38.9392V31.3573Z" fill="#76C4D5"/>
</svg>

<svg xmlns="http://www.w3.org/2000/svg" width="356" height="60" fill="none" xmlns:v="https://vecta.io/nano"><path d="M84.543 26.208c2.912 0 5.207-1.217 7.06-3.651l3.707 4.119c-3.001 3.557-6.442 5.335-10.502 5.335s-7.325-1.31-9.972-4.025-3.883-6.084-3.883-10.203 1.324-7.582 3.971-10.296 5.913-4.119 9.796-4.119c4.324 0 7.943 1.778 10.767 5.242l-3.618 4.399c-1.853-2.434-4.148-3.65-6.883-3.65-2.206 0-4.059.749-5.648 2.246s-2.383 3.557-2.383 6.178.706 4.68 2.206 6.272c1.5 1.31 3.265 2.153 5.383 2.153zm15.444 5.429v-27.8h5.825v22.278h11.208v5.523H99.986zm42.625-3.838c-2.647 2.715-5.913 4.119-9.796 4.119s-7.148-1.404-9.795-4.119-3.972-6.178-3.972-10.203 1.324-7.488 3.972-10.203 5.912-4.119 9.795-4.119 7.149 1.404 9.796 4.119 3.971 6.178 3.971 10.203-1.323 7.488-3.971 10.203zm-2.03-10.203c0-2.434-.794-4.587-2.206-6.365-1.5-1.778-3.353-2.621-5.56-2.621s-4.059.842-5.559 2.621-2.295 3.838-2.295 6.365.794 4.587 2.295 6.365 3.353 2.621 5.559 2.621 4.06-.842 5.56-2.621 2.206-3.838 2.206-6.365zm17.915 6.927c.971 1.31 2.295 1.966 3.971 1.966s3.001-.655 3.883-1.966c.971-1.31 1.412-3.089 1.412-5.242V3.837h5.825v15.538c0 4.025-1.059 7.114-3.177 9.267s-4.766 3.276-8.031 3.276-6.001-1.123-8.119-3.276-3.177-5.242-3.177-9.267V3.837h5.825v15.351c.088 2.247.617 4.025 1.588 5.335zm41.213-17.036c2.471 2.434 3.795 5.803 3.795 10.109s-1.236 7.769-3.619 10.296c-2.471 2.527-6.177 3.744-11.119 3.744h-9.09v-27.8h9.266c4.678 0 8.296 1.217 10.767 3.651zm-4.236 16.568c1.412-1.404 2.118-3.557 2.118-6.271s-.706-4.867-2.118-6.271c-1.412-1.498-3.618-2.246-6.619-2.246h-3.265v16.942h3.706c2.648 0 4.678-.749 6.178-2.153zm41.301-20.218h5.912v27.8h-5.912l-12.443-17.41v17.41h-5.913v-27.8h5.56l12.796 17.972V3.837zm30.975 27.8l-2.471-5.991h-11.031l-2.471 5.991h-6.266l11.296-27.8h5.648l11.296 27.8h-6.001zm-7.854-19.469l-3.265 8.05h6.53l-3.265-8.05zm26.387-2.902v22.371h-5.913V9.266h-7.413V3.837h20.739v5.429h-7.413zm11.649-5.429h5.824v27.8h-5.824v-27.8zm21.974 17.691l6.707-17.691h6.354l-10.59 27.8h-4.942l-10.502-27.8h6.354l6.619 17.691zM354.94 3.837V9.36h-13.061v5.803h11.738v5.242h-11.738v5.803h13.503v5.429h-19.327v-27.8h18.885zM77.836 55.319c1.588 0 2.912-.655 3.971-2.059l2.118 2.34c-1.677 1.966-3.618 2.995-5.913 2.995s-4.148-.749-5.56-2.246c-1.5-1.498-2.206-3.463-2.206-5.71 0-2.34.706-4.212 2.206-5.803s3.354-2.34 5.472-2.34c2.383 0 4.412.936 6.089 2.902l-2.03 2.434c-1.059-1.404-2.294-2.059-3.883-2.059-1.236 0-2.294.468-3.177 1.31S73.6 49.048 73.6 50.545s.441 2.621 1.236 3.463c.794.936 1.853 1.31 3.001 1.31zm20.65.936c-1.5 1.498-3.353 2.34-5.471 2.34s-3.971-.749-5.472-2.34c-1.5-1.498-2.206-3.463-2.206-5.71s.706-4.212 2.206-5.71 3.354-2.34 5.472-2.34 3.971.749 5.471 2.34c1.5 1.498 2.206 3.463 2.206 5.71s-.706 4.212-2.206 5.71zm-1.059-5.71c0-1.404-.441-2.621-1.236-3.557-.882-.936-1.853-1.498-3.089-1.498s-2.294.468-3.089 1.498c-.882.936-1.236 2.153-1.236 3.557s.441 2.527 1.236 3.557c.883.936 1.853 1.498 3.089 1.498s2.294-.468 3.089-1.498c.794-.936 1.236-2.153 1.236-3.557zm19.239-1.966l-3.972 8.612h-1.941l-3.971-8.611v9.828h-3.266V42.87h4.413l3.795 8.518 3.794-8.518h4.413v15.538h-3.265V48.58zm17.032-4.306c1.059.936 1.588 2.34 1.588 4.306s-.529 3.37-1.588 4.212c-1.059.936-2.648 1.31-4.854 1.31h-1.941v4.306h-3.266V42.87h5.207c2.206 0 3.795.468 4.854 1.404zm-2.383 6.084c.353-.468.618-1.123.618-2.059s-.265-1.498-.794-1.872-1.324-.562-2.383-.562h-1.853v5.242h2.206c1.059 0 1.765-.281 2.206-.749zm10.414 4.025c.529.749 1.323 1.123 2.206 1.123s1.677-.374 2.206-1.123.794-1.685.794-2.995v-8.612h3.266v8.705c0 2.246-.618 4.025-1.765 5.242s-2.648 1.778-4.501 1.778-3.354-.655-4.501-1.872-1.765-2.995-1.765-5.242v-8.705h3.265v8.799c0 1.217.265 2.246.795 2.902zm18.091-8.518v12.543h-3.265V45.865h-4.148V42.87h11.561v2.995h-4.148zm6.619-2.995h3.265v15.632h-3.265V42.87zm17.12 0h3.265v15.538h-3.265l-6.972-9.735v9.735h-3.265V42.87h3.001l7.236 10.016V42.87zm16.503 7.676h3.265v5.523c-1.5 1.685-3.442 2.621-6.089 2.621a7.5 7.5 0 0 1-5.472-2.246c-1.5-1.498-2.206-3.463-2.206-5.71 0-2.34.706-4.212 2.206-5.803s3.266-2.34 5.384-2.34 3.971.749 5.471 2.246l-1.677 2.621c-.617-.655-1.235-1.03-1.853-1.217-.529-.187-1.147-.374-1.765-.374-1.235 0-2.294.468-3.177 1.31-.882.936-1.324 2.059-1.324 3.557s.442 2.621 1.236 3.557c.794.842 1.765 1.31 2.912 1.31s2.118-.187 2.824-.655l.265-4.399zm21.797-7.675v2.995h-6.795v3.37h6.531v3.089h-6.531v6.084h-3.265V42.87h10.06zm15.179 13.385c-1.5 1.498-3.353 2.34-5.471 2.34-2.206 0-3.971-.749-5.471-2.34-1.501-1.498-2.207-3.463-2.207-5.71s.706-4.212 2.207-5.71 3.353-2.34 5.471-2.34c2.206 0 3.971.749 5.471 2.34 1.501 1.498 2.207 3.463 2.207 5.71s-.706 4.212-2.207 5.71zm-1.147-5.71c0-1.404-.441-2.621-1.235-3.557-.883-.936-1.854-1.498-3.089-1.498s-2.295.468-3.089 1.498c-.882.936-1.235 2.153-1.235 3.557s.441 2.527 1.235 3.557c.883.936 1.853 1.498 3.089 1.498s2.294-.468 3.089-1.498c.882-.936 1.235-2.153 1.235-3.557zm10.061 3.838c.529.749 1.323 1.123 2.206 1.123s1.677-.374 2.206-1.123.794-1.685.794-2.995v-8.612h3.266v8.705c0 2.246-.618 4.025-1.765 5.242s-2.648 1.778-4.501 1.778-3.353-.655-4.501-1.872-1.765-2.995-1.765-5.242v-8.705h3.266v8.799c-.089 1.217.264 2.246.794 2.902zm22.15-11.513h3.266v15.538h-3.266l-6.971-9.735v9.735h-3.266V42.87h3.001l7.236 10.016V42.87zm18.092 2.059c1.412 1.404 2.118 3.276 2.118 5.71s-.706 4.306-2.03 5.71-3.442 2.153-6.266 2.153h-5.03V42.87h5.207c2.647 0 4.677.655 6.001 2.059zm-2.383 9.267c.794-.843 1.235-1.966 1.235-3.463s-.441-2.715-1.235-3.557-2.03-1.217-3.707-1.217h-1.853v9.454h2.118c1.5-.094 2.648-.468 3.442-1.217zm17.385 4.212l-1.324-3.37h-6.177l-1.324 3.37h-3.53l6.354-15.632h3.177l6.354 15.632h-3.53zm-4.412-10.952l-1.854 4.493h3.707l-1.853-4.493zm14.826-1.591v12.543h-3.354V45.865h-4.148V42.87h11.649v2.995h-4.147zm6.53-2.995h3.265v15.632h-3.265V42.87zm19.239 13.385c-1.501 1.498-3.354 2.34-5.472 2.34-2.206 0-3.971-.749-5.471-2.34-1.501-1.498-2.207-3.463-2.207-5.71s.706-4.212 2.207-5.71 3.353-2.34 5.471-2.34c2.206 0 3.971.749 5.472 2.34 1.5 1.498 2.206 3.463 2.206 5.71s-.706 4.212-2.206 5.71zm-1.059-5.71c0-1.404-.442-2.621-1.236-3.557-.882-.936-1.853-1.498-3.089-1.498s-2.294.468-3.088 1.498c-.883.936-1.236 2.153-1.236 3.557s.441 2.527 1.236 3.557c.882.936 1.853 1.498 3.088 1.498s2.295-.468 3.089-1.498c.794-.936 1.236-2.153 1.236-3.557zm16.326-7.675h3.353v15.538h-3.353l-6.972-9.735v9.735h-3.265V42.87h3.089l7.148 10.016V42.87z" fill="#3b4473"/><path d="M8.031 39.969H0V60h18.797v-8.611H8.031v-11.42zm40.418.094v11.326H37.683v-.094V60H56.48V39.969h-8.119l.088.094zM0 20.031h8.119l-.088-.094V8.612h10.766V0H0v20.031zM37.683 0v8.612h10.767v11.42h8.031V0H37.683z" fill="#446ca9"/><path d="M36.624 20.031L25.857 8.612h11.825V0H18.797v8.612l10.767 11.42h7.06zm-9.707 19.938h-7.06l8.913 9.454 1.765 1.966H18.797V60h18.885v-8.705L32.3 45.679l-5.383-5.71zm21.533-19.938v12.449l-1.853-1.966-8.913-9.454v7.582l5.295 5.616 5.383 5.71h8.119V20.031h-8.031zM18.797 31.357L8.119 20.031H0v19.938h8.031V27.52l10.766 11.42v-7.582z" fill="#76c4d5"/></svg>
